loleaflet/images/lc_symbolshapes.brace-pair.svg

<?xml version="1.0" encoding="utf-8"?>
<!-- Generator: Adobe Illustrator 25.0.0, SVG Export Plug-In . SVG Version: 6.00 Build 0)  -->
<svg version="1.1" id="Layer_1" xmlns="http://www.w3.org/2000/svg" xmlns:xlink="http://www.w3.org/1999/xlink" x="0px" y="0px"
	 viewBox="0 0 26 26" enable-background="new 0 0 26 26" xml:space="preserve">
<path fill-rule="evenodd" clip-rule="evenodd" fill="#6D7075" d="M20,15.8v2.7c0,2.9-2.2,3.4-5,3.5v-2c1.7,0,3,0.3,3-1.5v-3.8
	l0.4,0.4l2.1-2.1l-2.1-2.1L18,11.4V7.5c0-1.8-1.3-1.6-3-1.5V4c2.8,0.1,5,0.6,5,3.5v2.7l3,2.8L20,15.8z M6,18.5v-2.7L3,13l3-2.8V7.5
	C6,4.6,8.2,4.1,11,4v2c-1.7,0-3-0.3-3,1.5v3.9l-0.4-0.4L5.4,13l2.1,2.1L8,14.7v3.8c0,1.8,1.3,1.6,3,1.5v2C8.2,21.9,6,21.4,6,18.5z"
	/>
</svg>

<svg xmlns="http://www.w3.org/2000/svg" viewBox="0 0 20 18"><path d="M20,15.8v2.7c0,2.9-2.2,3.4-5,3.5V20c1.7,0,3,.3,3-1.5V14.7l.4.4L20.5,13l-2.1-2.1-.4.5V7.5c0-1.8-1.3-1.6-3-1.5V4c2.8.1,5,.6,5,3.5v2.7L23,13ZM6,18.5V15.8L3,13l3-2.8V7.5C6,4.6,8.2,4.1,11,4V6C9.3,6,8,5.7,8,7.5v3.9L7.6,11,5.4,13l2.1,2.1.5-.4v3.8c0,1.8,1.3,1.6,3,1.5v2C8.2,21.9,6,21.4,6,18.5Z" transform="translate(-3 -4)" fill="#6d7075" fill-rule="evenodd"/></svg>
